icons/editor-color-filled.svg

<svg width="25" height="24" viewBox="0 0 25 24" fill="none" xmlns="http://www.w3.org/2000/svg">
<g id=" Color filled">
<g id="Icon">
<path d="M19.9836 16.6217C19.8785 16.4559 19.6986 16.3504 19.5035 16.3504C19.3085 16.3504 19.1285 16.456 19.0235 16.6217C18.6485 17.2398 17.4336 19.3504 17.4336 20.27C17.4336 21.4157 18.3635 22.3504 19.5035 22.3504C20.6435 22.3504 21.5735 21.4157 21.5735 20.27C21.5735 19.3353 20.3586 17.2398 19.9836 16.6217Z" fill="black"/>
<path fill-rule="evenodd" clip-rule="evenodd" d="M9.59718 1.91399C9.94865 1.56252 10.5185 1.56252 10.87 1.91399L19.87 10.914C19.9486 10.9926 20.0096 11.0822 20.0531 11.1778C20.872 12.1206 20.8331 13.5502 19.9365 14.4468L13.7306 20.6527C12.7934 21.5899 11.2738 21.5899 10.3365 20.6527L4.13068 14.4468C3.19342 13.5096 3.19342 11.99 4.13068 11.0527L10.3365 4.84686C10.4961 4.6873 10.6725 4.55491 10.8601 4.44968L9.59718 3.18679C9.24571 2.83531 9.24571 2.26547 9.59718 1.91399ZM18.6637 12.3255L12.4578 6.11965C12.2235 5.88534 11.8436 5.88534 11.6093 6.11965L5.40347 12.3255C5.30224 12.4267 5.24474 12.5551 5.23098 12.6872H18.8362C18.8224 12.5551 18.7649 12.4267 18.6637 12.3255Z" fill="black"/>
</g>
</g>
</svg>

<svg xmlns="http://www.w3.org/2000/svg" width="25" height="24" fill="none" viewBox="0 0 25 24"><g fill="currentColor"><path d="M19.984 16.622a.57.57 0 0 0-.48-.272.57.57 0 0 0-.48.272c-.376.618-1.59 2.728-1.59 3.648 0 1.146.93 2.08 2.07 2.08a2.08 2.08 0 0 0 2.07-2.08c0-.935-1.215-3.03-1.59-3.648"/><path fill-rule="evenodd" d="M9.597 1.914a.9.9 0 0 1 1.273 0l9 9a.9.9 0 0 1 .183.264 2.4 2.4 0 0 1-.117 3.269l-6.205 6.206a2.4 2.4 0 0 1-3.395 0l-6.205-6.206a2.4 2.4 0 0 1 0-3.394l6.205-6.206q.241-.24.524-.397L9.597 3.187a.9.9 0 0 1 0-1.273m9.067 10.412L12.458 6.12a.6.6 0 0 0-.849 0l-6.206 6.206a.6.6 0 0 0-.172.361h13.605a.6.6 0 0 0-.172-.361" clip-rule="evenodd"/></g></svg>
